X: 1
T: The Bonny Bunch Of Roses
R: reel
M: 4/4
L: 1/8
K: Ador
|:ABcd|e2 GE G2 ED|GAGE G2 cd|edcA dcAG|A4AdcA|
GEGA c2 Bc|dcde g2eg|agea gedc|A4:|
|:A2 ef|g2 ga gfed|cdef g2 eg|a2 ~a2 aged|e2 a2 a3 A|
GEGA c2 Bc|dcde g2 eg|agea gedc|A4:|

